.svelte-kit/output/client/library/social-抖音.svg

<svg width="50" height="49" viewBox="0 0 50 49" fill="none" xmlns="http://www.w3.org/2000/svg">
<path d="M6 14C6 9.58172 9.58172 6 14 6H34C38.4183 6 42 9.58172 42 14V34C42 38.4183 38.4183 42 34 42H14C9.58172 42 6 38.4183 6 34V14Z" fill="black"/>
<path fill-rule="evenodd" clip-rule="evenodd" d="M35 17C31.6863 17 29 14.3137 29 11H24L24 29.5C24 31.433 22.433 33 20.5 33C18.567 33 17 31.433 17 29.5C17 27.567 18.567 26 20.5 26H22L22 21H20.5C15.8056 21 12 24.8056 12 29.5C12 34.1944 15.8056 38 20.5 38C25.1944 38 29 34.1944 29 29.5V20.2211C30.7255 21.3462 32.7864 22 35 22H35.5V17H35Z" fill="#FA1E5C"/>
<path fill-rule="evenodd" clip-rule="evenodd" d="M34 16C30.6863 16 28 13.3137 28 10H23L23 28.5C23 30.433 21.433 32 19.5 32C17.567 32 16 30.433 16 28.5C16 26.567 17.567 25 19.5 25H21L21 20H19.5C14.8056 20 11 23.8056 11 28.5C11 33.1944 14.8056 37 19.5 37C24.1944 37 28 33.1944 28 28.5V19.2211C29.7255 20.3462 31.7864 21 34 21H34.5V16H34Z" fill="#5FFDFF"/>
<path fill-rule="evenodd" clip-rule="evenodd" d="M34.5 16.9795C32.7931 16.8386 31.2887 15.9833 30.2867 14.7133C29.1422 13.8103 28.3345 12.4995 28.083 11H24L24 29.5C24 31.433 22.433 33 20.5 33C19.2778 33 18.2018 32.3735 17.5759 31.4241C16.6265 30.7981 16 29.7222 16 28.5C16 26.567 17.567 25 19.5 25H21L21 21H20.5C15.8056 21 12 24.8056 12 29.5C12 31.5926 12.7562 33.5087 14.0103 34.9897C15.4913 36.2438 17.4074 37 19.5 37C24.1944 37 28 33.1944 28 28.5V19.2211C29.7255 20.3462 31.7864 21 34 21H34.5V16.9795Z" fill="white"/>
</svg>

<svg width="50" height="49" fill="none" xmlns="http://www.w3.org/2000/svg"><path d="M6 14a8 8 0 0 1 8-8h20a8 8 0 0 1 8 8v20a8 8 0 0 1-8 8H14a8 8 0 0 1-8-8V14Z" fill="#000"/><path fill-rule="evenodd" clip-rule="evenodd" d="M35 17a6 6 0 0 1-6-6h-5v18.5a3.5 3.5 0 1 1-3.5-3.5H22v-5h-1.5a8.5 8.5 0 1 0 8.5 8.5v-9.279A10.948 10.948 0 0 0 35 22h.5v-5H35Z" fill="#FA1E5C"/><path fill-rule="evenodd" clip-rule="evenodd" d="M34 16a6 6 0 0 1-6-6h-5v18.5a3.5 3.5 0 1 1-3.5-3.5H21v-5h-1.5a8.5 8.5 0 1 0 8.5 8.5v-9.279A10.948 10.948 0 0 0 34 21h.5v-5H34Z" fill="#5FFDFF"/><path fill-rule="evenodd" clip-rule="evenodd" d="M34.5 16.98a5.992 5.992 0 0 1-4.213-2.267A5.996 5.996 0 0 1 28.083 11H24v18.5a3.5 3.5 0 0 1-6.424 1.924A3.5 3.5 0 0 1 19.5 25H21v-4h-.5a8.5 8.5 0 0 0-6.49 13.99A8.5 8.5 0 0 0 28 28.5v-9.279A10.948 10.948 0 0 0 34 21h.5v-4.02Z" fill="#fff"/></svg>
